!! 00000] TT[WS
!!!OTL: Jieme guandeng
!!!ARE: Asia, China,ÿShanxi Huoxian
!! Ethnic Group: Han
!! WI, 180
!!!SCT: J0212d
!!!YEM: Copyright 1995, estate of Helmut Schaffrath.
**kern
*ICvox
*Ivox
*M2/4
*k[f#c#]
*D:
{8dd
8f#
8.a
16b
=1
8dd
16cc#
16b
4f#
=2
8ff#
16ff#
16ee
16ff#
16aa
16ff#
16ee
=3
8dd
16cc#
16b
4f#}
=4
{8dd
16a
16b
8dd
8dd
=5
8a
16b
16dd
8b
16b
16a
=6
8f#
16f#
16e
8.f#
16e
=7
4d
8r}
{8ff#
=8
8ee
8ff#
8b
8ee
=9
4dd
8ff#
16cc#
16b
=10
4a
8b
16a
16f#
=11
4e
8a
8b
=12
4.dd}
{8ff#
=13
8ee
8ff#
8b
8ee
=14
8dd
8dd
8a
16a
16a
=15
4b
8f#
16f#
16f#
=16
8e
4.d}
==
!!!AGN: Xiaodiao. Fengsuge, Qingge
!!!ONB: ESAC (Essen Associative Code) Database: CHINA
!!!AMT: simple duple
!!!AIN: vox
!!!EED: Helmut Schaffrath
!!!EEV: 1.0
*-
